app/client/src/assets/icons/blueprintjs/16px/layers.svg

<svg xmlns="http://www.w3.org/2000/svg" xml:space="preserve" viewBox="0 0 16 16"><path fill-rule="evenodd" d="m.55 4.89 7 3.5c.14.07.29.11.45.11s.31-.04.45-.11l7-3.5a.998.998 0 0 0-.06-1.81L8.4.08a1.006 1.006 0 0 0-.79 0l-6.99 3a.992.992 0 0 0-.07 1.81zM15 10c-.16 0-.31.04-.45.11L8 13.38 1.45 10.1c-.14-.06-.29-.1-.45-.1-.55 0-1 .45-1 1 0 .39.23.73.55.89l7 3.5c.14.07.29.11.45.11s.31-.04.45-.11l7-3.5c.32-.16.55-.5.55-.89 0-.55-.45-1-1-1zm0-3.5c-.16 0-.31.04-.45.11L8 9.88 1.45 6.61A.997.997 0 0 0 1 6.5c-.55 0-1 .45-1 1 0 .39.23.73.55.89l7 3.5c.14.07.29.11.45.11s.31-.04.45-.11l7-3.5c.32-.16.55-.5.55-.89 0-.55-.45-1-1-1z" clip-rule="evenodd"/></svg>

<?xml version="1.0" encoding="utf-8"?>
<!-- Generator: Adobe Illustrator 17.1.0, SVG Export Plug-In . SVG Version: 6.00 Build 0)  -->
<!DOCTYPE svg PUBLIC "-//W3C//DTD SVG 1.1//EN" "http://www.w3.org/Graphics/SVG/1.1/DTD/svg11.dtd">
<svg version="1.1" id="Layer_1" xmlns="http://www.w3.org/2000/svg" xmlns:xlink="http://www.w3.org/1999/xlink" x="0px" y="0px"
	 viewBox="0 0 16 16" enable-background="new 0 0 16 16" xml:space="preserve">
<g id="layers_1_">
	<g>
		<path fill-rule="evenodd" clip-rule="evenodd" d="M0.55,4.89L0.55,4.89l7,3.5l0,0C7.69,8.46,7.84,8.5,8,8.5s0.31-0.04,0.45-0.11
			l0,0l7-3.5l0,0C15.77,4.73,16,4.39,16,4c0-0.41-0.25-0.77-0.61-0.92l0,0l0,0c0,0,0,0,0,0l-6.99-3l0,0C8.27,0.03,8.14,0,8,0
			S7.73,0.03,7.61,0.08l0,0l-6.99,3c0,0,0,0,0,0l0,0l0,0C0.25,3.23,0,3.59,0,4C0,4.39,0.23,4.73,0.55,4.89z M15,10
			c-0.16,0-0.31,0.04-0.45,0.11l0,0L8,13.38l-6.55-3.28l0,0C1.31,10.04,1.16,10,1,10c-0.55,0-1,0.45-1,1c0,0.39,0.23,0.73,0.55,0.89
			l0,0l7,3.5l0,0C7.69,15.46,7.84,15.5,8,15.5s0.31-0.04,0.45-0.11l0,0l7-3.5l0,0C15.77,11.73,16,11.39,16,11
			C16,10.45,15.55,10,15,10z M15,6.5c-0.16,0-0.31,0.04-0.45,0.11l0,0L8,9.88L1.45,6.61l0,0C1.31,6.54,1.16,6.5,1,6.5
			c-0.55,0-1,0.45-1,1c0,0.39,0.23,0.73,0.55,0.89l0,0l7,3.5l0,0C7.69,11.96,7.84,12,8,12s0.31-0.04,0.45-0.11l0,0l7-3.5l0,0
			C15.77,8.23,16,7.89,16,7.5C16,6.95,15.55,6.5,15,6.5z"/>
	</g>
</g>
</svg>
